assets/images/by_business_w.svg

<svg fill="none" height="16" viewBox="0 0 18 16" width="18" xmlns="http://www.w3.org/2000/svg"><path d="m14.0003 10.5h-1.6666v1.6667h1.6666zm0-3.33333h-1.6666v1.66666h1.6666zm1.6667 6.66663h-6.66667v-1.6666h1.66667v-1.6667h-1.66667v-1.66667h1.66667v-1.66666h-1.66667v-1.66667h6.66667zm-8.33334-9.99997h-1.66667v-1.66666h1.66667zm0 3.33334h-1.66667v-1.66667h1.66667zm0 3.33333h-1.66667v-1.66667h1.66667zm0 3.3333h-1.66667v-1.6666h1.66667zm-3.33333-9.99997h-1.66667v-1.66666h1.66667zm0 3.33334h-1.66667v-1.66667h1.66667zm0 3.33333h-1.66667v-1.66667h1.66667zm0 3.3333h-1.66667v-1.6666h1.66667zm5-9.99997v-3.33333h-8.333338v15h16.666708v-11.66667z" fill="#fff"/></svg>

<svg width="18" height="16" viewBox="0 0 18 16" fill="none" xmlns="http://www.w3.org/2000/svg">
<path d="M14.0003 10.5H12.3337V12.1667H14.0003V10.5ZM14.0003 7.16667H12.3337V8.83333H14.0003V7.16667ZM15.667 13.8333H9.00033V12.1667H10.667V10.5H9.00033V8.83333H10.667V7.16667H9.00033V5.5H15.667V13.8333ZM7.33366 3.83333H5.66699V2.16667H7.33366V3.83333ZM7.33366 7.16667H5.66699V5.5H7.33366V7.16667ZM7.33366 10.5H5.66699V8.83333H7.33366V10.5ZM7.33366 13.8333H5.66699V12.1667H7.33366V13.8333ZM4.00033 3.83333H2.33366V2.16667H4.00033V3.83333ZM4.00033 7.16667H2.33366V5.5H4.00033V7.16667ZM4.00033 10.5H2.33366V8.83333H4.00033V10.5ZM4.00033 13.8333H2.33366V12.1667H4.00033V13.8333ZM9.00033 3.83333V0.5H0.666992V15.5H17.3337V3.83333H9.00033Z" fill="white"/>
</svg>
